src/assets/images/blogs/lightBulb.svg

<svg width="24" height="24" viewBox="0 0 24 24" fill="none" xmlns="http://www.w3.org/2000/svg">
<path d="M12.0003 23.2499C13.2522 23.2499 14.2671 22.6514 14.2671 21.913C14.2671 21.1747 13.2522 20.5762 12.0003 20.5762C10.7483 20.5762 9.7334 21.1747 9.7334 21.913C9.7334 22.6514 10.7483 23.2499 12.0003 23.2499Z" fill="#424242"/>
<path d="M11.9996 0.75C8.04707 0.75 4.84082 3.68813 4.84082 7.31063C4.84082 8.25563 5.12582 9.26625 5.54395 10.1569C6.13082 11.4094 6.7702 12.3356 6.9577 12.6769C7.47895 13.6256 7.40394 14.625 7.54832 15.2512C7.82019 16.4212 8.63395 16.845 11.9977 16.845C15.3614 16.845 16.0852 16.4419 16.3871 15.3638C16.5933 14.6306 16.3927 13.83 16.9121 12.8831C17.0996 12.5419 17.8627 11.4113 18.4514 10.1569C18.8696 9.26625 19.1546 8.25563 19.1546 7.31063C19.1583 3.68813 15.9521 0.75 11.9996 0.75Z" fill="#FFD600"/>
<path d="M12.0005 16.985C14.2724 16.985 16.1142 16.6106 16.1142 16.1487C16.1142 15.6869 14.2724 15.3125 12.0005 15.3125C9.72851 15.3125 7.88672 15.6869 7.88672 16.1487C7.88672 16.6106 9.72851 16.985 12.0005 16.985Z" fill="#B26500"/>
<path d="M12.0005 16.985C14.2724 16.985 16.1142 16.6106 16.1142 16.1487C16.1142 15.6869 14.2724 15.3125 12.0005 15.3125C9.72851 15.3125 7.88672 15.6869 7.88672 16.1487C7.88672 16.6106 9.72851 16.985 12.0005 16.985Z" fill="#B26500"/>
<path d="M12.0001 16.5362C13.6559 16.5362 14.9982 16.3632 14.9982 16.1499C14.9982 15.9366 13.6559 15.7637 12.0001 15.7637C10.3443 15.7637 9.00195 15.9366 9.00195 16.1499C9.00195 16.3632 10.3443 16.5362 12.0001 16.5362Z" fill="#FFA000"/>
<path d="M9.99364 10.6441C9.87739 10.9366 9.57551 11.5384 9.73301 11.8084C10.0986 12.4366 10.9705 12.6616 10.9705 13.2391C10.9705 14.1203 10.3293 16.9759 10.3293 16.9759M13.8805 10.5391C13.8805 10.5391 14.3005 11.4391 14.1224 11.8422C13.9893 12.1422 13.1886 12.6259 13.0855 12.7066C12.6074 13.0816 13.243 16.9778 13.243 16.9778" stroke="#B26500" stroke-width="0.25" stroke-miterlimit="10"/>
<path d="M9.9939 10.6441C10.6389 9.3691 10.9708 6.4591 10.1514 6.60722C8.76953 6.8566 10.472 11.6378 11.3102 11.0885C12.1483 10.5391 13.187 6.6166 11.912 6.6016C10.637 6.5866 11.9983 11.6003 12.8645 11.0435C13.5489 10.6028 15.2195 6.60722 13.847 6.60722C12.6789 6.60722 13.8827 10.5391 13.8827 10.5391" stroke="white" stroke-width="0.25" stroke-miterlimit="10"/>
<path d="M16.1041 16.3242C16.1041 16.3242 15.0241 16.8455 11.9997 16.8455C8.97533 16.8455 7.89533 16.3242 7.89533 16.3242C7.89533 16.3242 7.82783 17.288 8.05096 17.7248C8.31908 18.2498 8.52533 18.4317 8.52533 18.4317L8.63783 18.9661L8.59283 19.1067C8.53471 19.2905 8.57596 19.493 8.70533 19.6373L8.80283 19.7461L8.91158 20.2598L8.87408 20.363C8.80283 20.5598 8.85158 20.7792 8.99783 20.9292L9.06908 21.0023L9.15721 21.4223C9.15721 21.4223 9.60346 22.3748 11.9997 22.3748C14.396 22.3748 14.8422 21.4223 14.8422 21.4223L14.8497 21.3867L14.8985 21.338C14.996 21.2423 15.0278 21.0998 14.981 20.9723L14.9528 20.8992L15.0691 20.3442L15.2735 20.1286C15.3747 20.0217 15.3972 19.8642 15.3316 19.733L15.2378 19.5473L15.356 18.9905L15.431 18.9323C15.5416 18.8105 15.5435 18.6267 15.4947 18.5011C15.4572 18.4017 15.4872 18.2892 15.5641 18.2161C15.6822 18.1036 15.8341 17.933 15.9466 17.7211C16.1772 17.2917 16.1041 16.3242 16.1041 16.3242Z" fill="#82AEC0"/>
<path d="M8.52539 18.4319L8.62664 18.97C9.71789 18.9644 11.1748 19.0187 13.9704 18.5744C14.4748 18.46 15.0804 18.2331 14.411 18.3269C14.411 18.325 11.8441 18.5706 8.52539 18.4319ZM8.90039 20.2637C10.1079 20.2431 12.5754 20.1231 15.2266 19.5475L15.3448 18.9906C12.5716 19.6206 9.96352 19.7331 8.79164 19.7481L8.90039 20.2637ZM15.0579 20.3425C12.6035 20.875 10.3066 21.0119 9.06352 21.0419L9.14414 21.4244C9.14414 21.4244 9.18352 22.6112 11.9866 22.6112C14.7898 22.6112 14.8291 21.4244 14.8291 21.4244C14.8291 21.4244 13.6329 21.7656 12.161 21.5987C12.1455 21.5989 12.1301 21.5959 12.1157 21.5901C12.1014 21.5843 12.0883 21.5757 12.0772 21.5648C12.0549 21.5428 12.0422 21.5129 12.042 21.4815C12.0417 21.4502 12.0539 21.4201 12.0759 21.3977C12.0979 21.3754 12.1278 21.3627 12.1591 21.3625C13.0385 21.2462 14.0885 21.0737 14.9416 20.8975L15.0579 20.3425Z" fill="#2F7889"/>
<path d="M7.90918 16.3242C7.90918 16.3242 9.12043 16.8455 11.9892 16.8455C14.8579 16.8455 16.0917 16.3242 16.0917 16.3242" stroke="#82AEC0" stroke-width="0.499625" stroke-miterlimit="10" stroke-linecap="round"/>
<path d="M9.35209 1.93523C10.0852 1.75523 10.8521 1.84523 11.3771 2.48273C11.5252 2.66273 11.6396 2.87648 11.6658 3.10898C11.7183 3.5571 11.4408 3.98085 11.1108 4.2921C10.1696 5.18085 8.83272 5.6121 8.22522 6.83835C8.08272 7.12523 7.97022 7.4346 7.75272 7.66898C7.53522 7.90335 7.17334 8.04585 6.89022 7.89585C6.74022 7.8171 6.63709 7.66898 6.55272 7.52085C6.02022 6.5721 6.05959 5.36273 6.52834 4.38023C7.04397 3.30398 8.17459 2.22398 9.35209 1.93523Z" fill="#FFFF8D"/>
<path d="M8.709 17.2367C8.544 17.1617 8.60963 16.9142 8.78963 16.9273C9.39338 16.9742 10.4209 17.0323 11.7803 17.0323C13.2128 17.0323 14.4728 16.9255 15.2078 16.8467C15.3896 16.828 15.459 17.0773 15.2921 17.1542C14.7259 17.4205 13.689 17.7242 11.9115 17.7242C10.1771 17.7242 9.22088 17.4673 8.709 17.2367Z" fill="#FFD600"/>
<path d="M9.73869 19.1299C9.61306 19.1749 9.48369 19.2368 9.41994 19.353C9.39744 19.3961 9.38431 19.4449 9.39369 19.4936C9.40869 19.5649 9.47431 19.6155 9.53994 19.6474C9.67119 19.7111 9.81931 19.728 9.96369 19.7299C10.2618 19.7336 10.5581 19.6774 10.8524 19.6211C10.9406 19.6043 11.0306 19.5874 11.1093 19.5443C11.1881 19.5011 11.2556 19.428 11.2687 19.3399C11.2874 19.2218 11.2031 19.1074 11.0999 19.0511C10.7437 18.8543 10.0987 19.0005 9.73869 19.1299ZM10.0181 20.3655C9.89244 20.4105 9.76306 20.4724 9.69931 20.5886C9.67681 20.6318 9.66369 20.6805 9.67306 20.7293C9.68806 20.8005 9.75369 20.8511 9.81931 20.883C9.95056 20.9468 10.0987 20.9636 10.2431 20.9655C10.5412 20.9693 10.8374 20.913 11.1318 20.8568C11.2199 20.8399 11.3099 20.823 11.3887 20.7799C11.4674 20.7368 11.5349 20.6636 11.5481 20.5755C11.5668 20.4574 11.4824 20.343 11.3793 20.2868C11.0231 20.0918 10.3762 20.238 10.0181 20.3655Z" fill="#94D1E0"/>
<path d="M9.37668 15.7873C9.54731 15.8042 9.72731 15.7892 9.87168 15.6973C10.0161 15.6054 10.1079 15.4179 10.0498 15.2567C10.0198 15.1723 9.95418 15.1048 9.89043 15.041C9.74981 14.9023 9.60918 14.7635 9.47043 14.6248C9.31481 14.4692 9.15918 14.3154 8.99043 14.1748C8.72981 13.9573 8.37918 13.7529 8.03606 13.9123C7.74356 14.0473 7.67418 14.3135 7.80356 14.5929C8.07918 15.1798 8.72043 15.7198 9.37668 15.7873Z" fill="#FFFF8D"/>
</svg>

<svg xmlns="http://www.w3.org/2000/svg" width="24" height="24" fill="none"><path fill="#424242" d="M12 23.25c1.252 0 2.267-.599 2.267-1.337S13.252 20.576 12 20.576s-2.267.599-2.267 1.337S10.748 23.25 12 23.25"/><path fill="#FFD600" d="M12 .75c-3.953 0-7.16 2.938-7.16 6.56 0 .946.286 1.956.704 2.847.587 1.252 1.226 2.179 1.414 2.52.521.949.446 1.948.59 2.574.272 1.17 1.086 1.594 4.45 1.594s4.087-.403 4.39-1.481c.205-.733.005-1.534.524-2.48.188-.342.95-1.473 1.54-2.727.418-.89.703-1.901.703-2.846C19.158 3.688 15.952.75 12 .75"/><path fill="#B26500" d="M12 16.985c2.272 0 4.114-.374 4.114-.836s-1.842-.837-4.113-.837-4.114.375-4.114.837 1.842.836 4.114.836"/><path fill="#B26500" d="M12 16.985c2.272 0 4.114-.374 4.114-.836s-1.842-.837-4.113-.837-4.114.375-4.114.837 1.842.836 4.114.836"/><path fill="#FFA000" d="M12 16.536c1.656 0 2.998-.173 2.998-.386s-1.342-.386-2.998-.386-2.998.173-2.998.386 1.342.386 2.998.386"/><path stroke="#B26500" stroke-miterlimit="10" stroke-width=".25" d="M9.994 10.644c-.117.293-.418.894-.261 1.164.366.629 1.237.854 1.237 1.431 0 .881-.64 3.737-.64 3.737m3.55-6.437s.42.9.242 1.303c-.133.3-.933.784-1.037.865-.478.375.158 4.27.158 4.27"/><path stroke="#fff" stroke-miterlimit="10" stroke-width=".25" d="M9.994 10.644c.645-1.275.977-4.185.157-4.037-1.381.25.321 5.03 1.16 4.482.837-.55 1.876-4.472.601-4.487s.086 4.998.952 4.442c.685-.441 2.355-4.437.983-4.437-1.168 0 .036 3.932.036 3.932"/><path fill="#82AEC0" d="M16.104 16.324s-1.08.521-4.104.521-4.105-.52-4.105-.52-.067.963.156 1.4c.268.525.474.707.474.707l.113.534-.045.14a.55.55 0 0 0 .112.531l.098.11.109.513-.038.103a.55.55 0 0 0 .124.566l.071.073.088.42s.446.953 2.843.953 2.842-.953 2.842-.953l.008-.035.049-.049a.35.35 0 0 0 .082-.366l-.028-.073.116-.555.204-.215a.35.35 0 0 0 .059-.396l-.094-.186.118-.556.075-.059c.11-.121.113-.305.064-.43a.27.27 0 0 1 .07-.286c.117-.112.27-.283.382-.495.23-.43.157-1.397.157-1.397"/><path fill="#2F7889" d="m8.525 18.432.102.538c1.09-.006 2.548.049 5.343-.396.505-.114 1.11-.34.441-.247 0-.002-2.567.244-5.886.105m.375 1.832c1.208-.02 3.675-.14 6.327-.716l.118-.557c-2.773.63-5.381.742-6.553.757zm6.158.079c-2.454.532-4.751.669-5.994.699l.08.382s.04 1.187 2.843 1.187 2.842-1.187 2.842-1.187-1.196.342-2.668.175a.117.117 0 0 1-.119-.117.12.12 0 0 1 .117-.12c.88-.116 1.93-.288 2.783-.464z"/><path stroke="#82AEC0" stroke-linecap="round" stroke-miterlimit="10" stroke-width=".5" d="M7.91 16.324s1.21.521 4.08.521c2.868 0 4.102-.52 4.102-.52"/><path fill="#FFFF8D" d="M9.352 1.935c.733-.18 1.5-.09 2.025.548.148.18.263.393.289.626.052.448-.225.872-.555 1.183-.941.889-2.278 1.32-2.886 2.546-.142.287-.255.597-.472.831-.218.234-.58.377-.863.227-.15-.079-.253-.227-.337-.375-.533-.949-.493-2.158-.025-3.14.516-1.077 1.647-2.157 2.824-2.446"/><path fill="#FFD600" d="M8.709 17.237c-.165-.075-.1-.323.08-.31a39 39 0 0 0 2.991.105c1.433 0 2.693-.107 3.428-.185.182-.019.251.23.084.307-.566.267-1.603.57-3.38.57-1.735 0-2.691-.257-3.203-.487"/><path fill="#94D1E0" d="M9.739 19.13c-.126.045-.255.107-.32.223a.22.22 0 0 0-.025.14c.015.072.08.123.146.154.131.064.28.081.424.083.298.004.594-.053.888-.109.089-.017.179-.034.257-.077.08-.043.147-.116.16-.204.018-.118-.066-.233-.17-.289-.355-.197-1-.05-1.36.079m.28 1.236c-.127.044-.256.106-.32.223a.22.22 0 0 0-.026.14c.015.072.08.122.146.154.132.064.28.08.424.082.298.004.594-.052.889-.108.088-.017.178-.034.257-.077.078-.043.146-.116.16-.204.018-.119-.067-.233-.17-.29-.356-.194-1.003-.048-1.36.08"/><path fill="#FFFF8D" d="M9.377 15.787c.17.017.35.002.495-.09.144-.092.236-.28.178-.44a.6.6 0 0 0-.16-.216l-.42-.416a7 7 0 0 0-.48-.45c-.26-.218-.61-.422-.954-.263-.292.135-.362.401-.232.68.275.588.916 1.128 1.573 1.195"/></svg>
